src/assets/images/meraki-logo.svg

<svg xmlns="http://www.w3.org/2000/svg" xmlns:xlink="http://www.w3.org/1999/xlink" width="1164" height="330" fill="none" xmlns:v="https://vecta.io/nano"><circle cx="165.117" cy="165.068" r="158.673" stroke="url(#A)" stroke-width="11.856"/><circle cx="165.123" cy="165.07" r="133.999" stroke="url(#B)" stroke-width="3.952"/><path d="M112.634 236.633H67.31l97.806-143.132 95.42 143.132h-42.94l-52.48-76.337-52.48 76.337z" fill="url(#C)"/><path d="M397.69 190.88v-97.1l61.45 58.166 60.512-58.166v97.1h-28.615v-38.934l-31.897 30.022-33.774-30.022v38.934H397.69z" fill="url(#D)"/><path d="M653.675 94.488H552.352v96.4h101.323v-21.055h-73.36v-16.777h61.517v-21.383h-61.517v-17.107h73.36V94.488z" fill="url(#E)"/><path d="M692.494 190.878V93.502h65.784s14.145.7 21.12 5.63c8.653 6.106 13.747 13.996 13.282 23.643-.806 16.755-17.798 23.112-17.798 23.112l29.088 44.99h-29.088l-34.668-53.093h12.884s13.07 2.246 12.353-12.62c-.56-11.615-12.353-10.6-12.353-10.6H719.8v76.322h-27.306z" fill="url(#F)"/><path d="M861.152 190.878h-30.214l64.744-97.117 64.745 97.117h-30.214l-34.53-49.638-34.53 49.638z" fill="url(#G)"/><path d="M1014.38 190.878h-28.054V95.92h28.054v43.163l47.48-43.163h34.53l-47.48 47.48 47.48 47.48h-34.53l-47.48-47.48v47.48z" fill="url(#H)"/><path d="M1163.3 190.878h-28.05V93.76h28.05v97.117z" fill="url(#I)"/><path d="M700.69 232.442c-.6 0-1.152-.112-1.686-.337a4.89 4.89 0 0 1-1.37-.928 4.37 4.37 0 0 1-.928-1.369c-.224-.534-.337-1.096-.337-1.687v-8.64c0-.6.113-1.145.337-1.665a4.07 4.07 0 0 1 .928-1.369 4.36 4.36 0 0 1 1.37-.928 4.08 4.08 0 0 1 1.686-.358h14.668a3.94 3.94 0 0 1 1.665.358 4.3 4.3 0 0 1 1.391.928 4.07 4.07 0 0 1 .928 1.369c.224.52.337 1.075.337 1.665v3.9h-4.32v-3.9H700.69v8.64h14.668c.6 0 1.145.113 1.665.338.534.225.998.534 1.39.927a4.3 4.3 0 0 1 .928 1.391c.224.52.337 1.075.337 1.665v8.62c0 .6-.113 1.152-.337 1.686a4.36 4.36 0 0 1-.928 1.37c-.393.393-.857.702-1.39.927-.52.225-1.075.338-1.665.338h-15.1a4.3 4.3 0 0 1-1.686-.338c-.52-.225-.976-.534-1.37-.927s-.702-.85-.927-1.37c-.225-.534-.337-1.096-.337-1.686v-3.878h4.32v3.878h15.1v-8.62H700.69zm78.587 8.62c0 .6-.113 1.152-.337 1.686a4.36 4.36 0 0 1-.928 1.37c-.393.393-.857.702-1.39.927-.52.225-1.075.338-1.665.338h-17.26a4.3 4.3 0 0 1-1.686-.338c-.52-.225-.976-.534-1.37-.927s-.702-.85-.927-1.37c-.225-.534-.337-1.096-.337-1.686V219.48c0-.6.112-1.145.337-1.665.225-.533.534-1 .927-1.37.394-.394.85-.703 1.37-.928a4.08 4.08 0 0 1 1.686-.358h17.26a3.94 3.94 0 0 1 1.665.358 4.3 4.3 0 0 1 1.391.928 4.07 4.07 0 0 1 .928 1.369c.224.52.337 1.075.337 1.665v21.582zm-21.582-21.582v21.582h17.26V219.48h-17.26zm59.577-4.32v25.902h15.533v4.32h-19.853V215.16h4.32zm46.615 0h4.32v25.902h17.26V215.16h4.32v25.902c0 .6-.112 1.152-.337 1.686-.225.52-.534.977-.927 1.37s-.857.702-1.39.927c-.52.225-1.075.338-1.665.338h-17.26a4.3 4.3 0 0 1-1.686-.338c-.52-.225-.977-.534-1.37-.927a4.36 4.36 0 0 1-.927-1.37 4.3 4.3 0 0 1-.338-1.686V215.16zm56.985 0h24.174v4.32h-9.927v25.903h-4.32V219.48h-9.927v-4.32zm59.577 0v30.223h-4.32V215.16h4.32zm59.58 25.902a4.39 4.39 0 0 1-.34 1.686 4.35 4.35 0 0 1-.93 1.37c-.4.393-.85.702-1.4.927-.52.225-1.07.338-1.66.338h-17.26c-.6 0-1.16-.113-1.7-.338a4.34 4.34 0 0 1-1.37-.927c-.4-.393-.7-.85-.93-1.37a4.39 4.39 0 0 1-.34-1.686V219.48c0-.6.12-1.145.34-1.665a4.21 4.21 0 0 1 .93-1.369c.4-.394.85-.703 1.37-.928.53-.24 1.1-.358 1.7-.358h17.26c.6 0 1.14.12 1.66.358a4.2 4.2 0 0 1 1.39.928c.4.38.7.836.93 1.37.22.52.34 1.075.34 1.665v21.582zm-21.58-21.582v21.582h17.26V219.48h-17.26zm59.57 25.903h-4.32V215.16h4.32l18.17 23.436V215.16h4.32v30.223h-4.32l-18.17-23.437v23.437zm60.46-12.94c-.6 0-1.15-.112-1.68-.337-.52-.24-.98-.548-1.37-.928-.4-.393-.7-.85-.93-1.37-.22-.534-.34-1.096-.34-1.687v-8.64c0-.6.12-1.145.34-1.665.23-.533.53-1 .93-1.37.4-.394.85-.703 1.37-.928a4.04 4.04 0 0 1 1.68-.358h14.67a3.96 3.96 0 0 1 1.67.358c.53.225 1 .534 1.4.928a4.21 4.21 0 0 1 .93 1.369 4.23 4.23 0 0 1 .33 1.665v3.9h-4.32v-3.9h-14.67v8.64h14.67a4.17 4.17 0 0 1 1.67.338 4.32 4.32 0 0 1 1.39.927c.4.393.7.857.93 1.39a4.23 4.23 0 0 1 .33 1.665v8.62c0 .6-.1 1.152-.33 1.686-.23.52-.54.977-.93 1.37a4.32 4.32 0 0 1-1.39.927 4.17 4.17 0 0 1-1.67.338h-15.1c-.6 0-1.15-.113-1.68-.338a4.34 4.34 0 0 1-1.37-.927 4.19 4.19 0 0 1-.93-1.37c-.23-.534-.34-1.096-.34-1.686v-3.878h4.32v3.878h15.1v-8.62h-14.67z" fill="url(#J)"/><defs><linearGradient id="A" x1=".516" y1=".466" x2="329.718" y2="329.669" xlink:href="#K"><stop offset=".162" stop-color="#b4822b"/><stop offset=".483" stop-color="#fcefa3"/><stop offset=".842" stop-color="#b4822b"/></linearGradient><linearGradient id="B" x1="165.123" y1="29.095" x2="165.123" y2="301.044" xlink:href="#K"><stop stop-color="#b4832c"/><stop offset=".505" stop-color="#fdf0a6"/><stop offset="1" stop-color="#b4822b"/></linearGradient><linearGradient id="C" x1="163.922" y1="93.502" x2="163.922" y2="236.633" xlink:href="#K"><stop stop-color="#b7872f"/><stop offset=".234" stop-color="#f5cb58"/><stop offset=".461" stop-color="#fef1aa"/><stop offset=".734" stop-color="#ebc761"/><stop offset="1" stop-color="#b5852d"/></linearGradient><linearGradient id="D" x1="397.689" y1="142.329" x2="519.652" y2="142.329" xlink:href="#K"><stop stop-color="#b3812a"/><stop offset="1" stop-color="#cfab52"/></linearGradient><linearGradient id="E" x1="552.352" y1="142.683" x2="653.675" y2="142.683" xlink:href="#K"><stop stop-color="#d8ba60"/><stop offset="1" stop-color="#f0dd82"/></linearGradient><linearGradient id="F" x1="692.494" y1="142.19" x2="803.97" y2="142.19" xlink:href="#K"><stop stop-color="#f6e690"/><stop offset="1" stop-color="#fceea2"/></linearGradient><linearGradient id="G" x1="830.937" y1="142.319" x2="960.427" y2="142.319" xlink:href="#K"><stop stop-color="#f8e997"/><stop offset="1" stop-color="#e1c76c"/></linearGradient><linearGradient id="H" x1="986.326" y1="143.398" x2="1096.39" y2="143.398" xlink:href="#K"><stop stop-color="#dabd63"/><stop offset="1" stop-color="#c39940"/></linearGradient><linearGradient id="I" x1="1135.24" y1="142.319" x2="1163.29" y2="142.319" xlink:href="#K"><stop stop-color="#b88932"/><stop offset="1" stop-color="#b3812a"/></linearGradient><linearGradient id="J" x1="692.492" y1="234.377" x2="1163.29" y2="234.377" xlink:href="#K"><stop stop-color="#fff3ad"/><stop offset="1" stop-color="#f9eea9"/></linearGradient><linearGradient id="K" gradientUnits="userSpaceOnUse"/></defs></svg>

<svg width="1164" height="330" viewBox="0 0 1164 330" fill="none" xmlns="http://www.w3.org/2000/svg">
<circle cx="165.117" cy="165.068" r="158.673" stroke="url(#paint0_linear)" stroke-width="11.8559"/>
<circle cx="165.123" cy="165.07" r="133.999" stroke="url(#paint1_linear)" stroke-width="3.95196"/>
<path d="M112.634 236.633H67.3086L165.115 93.5015L260.536 236.633H217.596L165.115 160.296L112.634 236.633Z" fill="url(#paint2_linear)"/>
<path d="M397.689 190.879V93.7791L459.14 151.945L519.652 93.7791V190.879H491.037V151.945L459.14 181.967L425.366 151.945V190.879H397.689Z" fill="url(#paint3_linear)"/>
<path d="M653.675 94.4876H552.352V190.878H653.675V169.823H580.314V153.046H641.831V131.663H580.314V114.556H653.675V94.4876Z" fill="url(#paint4_linear)"/>
<path d="M692.494 190.878V93.5015H758.278C758.278 93.5015 772.423 94.2115 779.398 99.1325C788.051 105.238 793.145 113.128 792.68 122.775C791.874 139.53 774.882 145.887 774.882 145.887L803.97 190.878H774.882L740.214 137.785H753.098C753.098 137.785 766.167 140.031 765.451 125.166C764.892 113.551 753.098 114.556 753.098 114.556H719.8V190.878H692.494Z" fill="url(#paint5_linear)"/>
<path d="M861.152 190.878H830.938L895.682 93.7607L960.427 190.878H930.213L895.682 141.24L861.152 190.878Z" fill="url(#paint6_linear)"/>
<path d="M1014.38 190.878H986.326V95.9189H1014.38V139.082L1061.86 95.9189H1096.39L1048.91 143.398L1096.39 190.878H1061.86L1014.38 143.398V190.878Z" fill="url(#paint7_linear)"/>
<path d="M1163.29 190.878H1135.24V93.7607H1163.29V190.878Z" fill="url(#paint8_linear)"/>
<path d="M700.691 232.442C700.101 232.442 699.539 232.33 699.005 232.105C698.485 231.866 698.028 231.557 697.635 231.177C697.241 230.784 696.932 230.327 696.707 229.808C696.483 229.274 696.37 228.712 696.37 228.121V219.48C696.37 218.89 696.483 218.335 696.707 217.815C696.932 217.282 697.241 216.825 697.635 216.446C698.028 216.052 698.485 215.743 699.005 215.518C699.539 215.279 700.101 215.16 700.691 215.16H715.359C715.949 215.16 716.504 215.279 717.024 215.518C717.558 215.743 718.022 216.052 718.415 216.446C718.809 216.825 719.118 217.282 719.343 217.815C719.567 218.335 719.68 218.89 719.68 219.48V223.379H715.359V219.48H700.691V228.121H715.359C715.949 228.121 716.504 228.234 717.024 228.459C717.558 228.684 718.022 228.993 718.415 229.386C718.809 229.779 719.118 230.243 719.343 230.777C719.567 231.297 719.68 231.852 719.68 232.442V241.062C719.68 241.652 719.567 242.214 719.343 242.748C719.118 243.268 718.809 243.725 718.415 244.118C718.022 244.511 717.558 244.82 717.024 245.045C716.504 245.27 715.949 245.383 715.359 245.383H700.269C699.679 245.383 699.117 245.27 698.583 245.045C698.063 244.82 697.607 244.511 697.213 244.118C696.82 243.725 696.511 243.268 696.286 242.748C696.061 242.214 695.949 241.652 695.949 241.062V237.184H700.269V241.062H715.359V232.442H700.691ZM779.278 241.062C779.278 241.652 779.165 242.214 778.941 242.748C778.716 243.268 778.407 243.725 778.013 244.118C777.62 244.511 777.156 244.82 776.622 245.045C776.102 245.27 775.547 245.383 774.957 245.383H757.696C757.106 245.383 756.544 245.27 756.01 245.045C755.49 244.82 755.034 244.511 754.64 244.118C754.247 243.725 753.938 243.268 753.713 242.748C753.488 242.214 753.376 241.652 753.376 241.062V219.48C753.376 218.89 753.488 218.335 753.713 217.815C753.938 217.282 754.247 216.825 754.64 216.446C755.034 216.052 755.49 215.743 756.01 215.518C756.544 215.279 757.106 215.16 757.696 215.16H774.957C775.547 215.16 776.102 215.279 776.622 215.518C777.156 215.743 777.62 216.052 778.013 216.446C778.407 216.825 778.716 217.282 778.941 217.815C779.165 218.335 779.278 218.89 779.278 219.48V241.062ZM757.696 219.48V241.062H774.957V219.48H757.696ZM817.273 215.16V241.062H832.806V245.383H812.953V215.16H817.273ZM863.888 215.16H868.209V241.062H885.47V215.16H889.79V241.062C889.79 241.652 889.678 242.214 889.453 242.748C889.228 243.268 888.919 243.725 888.526 244.118C888.132 244.511 887.669 244.82 887.135 245.045C886.615 245.27 886.06 245.383 885.47 245.383H868.209C867.619 245.383 867.057 245.27 866.523 245.045C866.003 244.82 865.546 244.511 865.153 244.118C864.76 243.725 864.45 243.268 864.226 242.748C864.001 242.214 863.888 241.652 863.888 241.062V215.16ZM920.873 215.16H945.047V219.48H935.12V245.383H930.8V219.48H920.873V215.16ZM980.45 215.16V245.383H976.129V215.16H980.45ZM1040.03 241.062C1040.03 241.652 1039.91 242.214 1039.69 242.748C1039.46 243.268 1039.16 243.725 1038.76 244.118C1038.37 244.511 1037.91 244.82 1037.37 245.045C1036.85 245.27 1036.3 245.383 1035.71 245.383H1018.45C1017.85 245.383 1017.29 245.27 1016.76 245.045C1016.24 244.82 1015.78 244.511 1015.39 244.118C1015 243.725 1014.69 243.268 1014.46 242.748C1014.24 242.214 1014.12 241.652 1014.12 241.062V219.48C1014.12 218.89 1014.24 218.335 1014.46 217.815C1014.69 217.282 1015 216.825 1015.39 216.446C1015.78 216.052 1016.24 215.743 1016.76 215.518C1017.29 215.279 1017.85 215.16 1018.45 215.16H1035.71C1036.3 215.16 1036.85 215.279 1037.37 215.518C1037.91 215.743 1038.37 216.052 1038.76 216.446C1039.16 216.825 1039.46 217.282 1039.69 217.815C1039.91 218.335 1040.03 218.89 1040.03 219.48V241.062ZM1018.45 219.48V241.062H1035.71V219.48H1018.45ZM1078.02 245.383H1073.7V215.16H1078.02L1096.19 238.596V215.16H1100.51V245.383H1096.19L1078.02 221.946V245.383ZM1138.48 232.442C1137.89 232.442 1137.33 232.33 1136.8 232.105C1136.28 231.866 1135.82 231.557 1135.43 231.177C1135.03 230.784 1134.73 230.327 1134.5 229.808C1134.28 229.274 1134.16 228.712 1134.16 228.121V219.48C1134.16 218.89 1134.28 218.335 1134.5 217.815C1134.73 217.282 1135.03 216.825 1135.43 216.446C1135.82 216.052 1136.28 215.743 1136.8 215.518C1137.33 215.279 1137.89 215.16 1138.48 215.16H1153.15C1153.74 215.16 1154.3 215.279 1154.82 215.518C1155.35 215.743 1155.82 216.052 1156.21 216.446C1156.6 216.825 1156.91 217.282 1157.14 217.815C1157.36 218.335 1157.47 218.89 1157.47 219.48V223.379H1153.15V219.48H1138.48V228.121H1153.15C1153.74 228.121 1154.3 228.234 1154.82 228.459C1155.35 228.684 1155.82 228.993 1156.21 229.386C1156.6 229.779 1156.91 230.243 1157.14 230.777C1157.36 231.297 1157.47 231.852 1157.47 232.442V241.062C1157.47 241.652 1157.36 242.214 1157.14 242.748C1156.91 243.268 1156.6 243.725 1156.21 244.118C1155.82 244.511 1155.35 244.82 1154.82 245.045C1154.3 245.27 1153.74 245.383 1153.15 245.383H1138.06C1137.47 245.383 1136.91 245.27 1136.38 245.045C1135.86 244.82 1135.4 244.511 1135.01 244.118C1134.61 243.725 1134.3 243.268 1134.08 242.748C1133.85 242.214 1133.74 241.652 1133.74 241.062V237.184H1138.06V241.062H1153.15V232.442H1138.48Z" fill="url(#paint9_linear)"/>
<defs>
<linearGradient id="paint0_linear" x1="0.515625" y1="0.466492" x2="329.718" y2="329.669" gradientUnits="userSpaceOnUse">
<stop offset="0.162031" stop-color="#B4822B"/>
<stop offset="0.482895" stop-color="#FCEFA3"/>
<stop offset="0.841956" stop-color="#B4822B"/>
</linearGradient>
<linearGradient id="paint1_linear" x1="165.123" y1="29.0948" x2="165.123" y2="301.044" gradientUnits="userSpaceOnUse">
<stop stop-color="#B4832C"/>
<stop offset="0.505208" stop-color="#FDF0A6"/>
<stop offset="1" stop-color="#B4822B"/>
</linearGradient>
<linearGradient id="paint2_linear" x1="163.922" y1="93.5015" x2="163.922" y2="236.633" gradientUnits="userSpaceOnUse">
<stop stop-color="#B7872F"/>
<stop offset="0.234375" stop-color="#F5CB58"/>
<stop offset="0.460774" stop-color="#FEF1AA"/>
<stop offset="0.734375" stop-color="#EBC761"/>
<stop offset="1" stop-color="#B5852D"/>
</linearGradient>
<linearGradient id="paint3_linear" x1="397.689" y1="142.329" x2="519.652" y2="142.329" gradientUnits="userSpaceOnUse">
<stop stop-color="#B3812A"/>
<stop offset="1" stop-color="#CFAB52"/>
</linearGradient>
<linearGradient id="paint4_linear" x1="552.352" y1="142.683" x2="653.675" y2="142.683" gradientUnits="userSpaceOnUse">
<stop stop-color="#D8BA60"/>
<stop offset="1" stop-color="#F0DD82"/>
</linearGradient>
<linearGradient id="paint5_linear" x1="692.494" y1="142.19" x2="803.97" y2="142.19" gradientUnits="userSpaceOnUse">
<stop stop-color="#F6E690"/>
<stop offset="1" stop-color="#FCEEA2"/>
</linearGradient>
<linearGradient id="paint6_linear" x1="830.937" y1="142.319" x2="960.427" y2="142.319" gradientUnits="userSpaceOnUse">
<stop stop-color="#F8E997"/>
<stop offset="1" stop-color="#E1C76C"/>
</linearGradient>
<linearGradient id="paint7_linear" x1="986.326" y1="143.398" x2="1096.39" y2="143.398" gradientUnits="userSpaceOnUse">
<stop stop-color="#DABD63"/>
<stop offset="1" stop-color="#C39940"/>
</linearGradient>
<linearGradient id="paint8_linear" x1="1135.24" y1="142.319" x2="1163.29" y2="142.319" gradientUnits="userSpaceOnUse">
<stop stop-color="#B88932"/>
<stop offset="1" stop-color="#B3812A"/>
</linearGradient>
<linearGradient id="paint9_linear" x1="692.492" y1="234.377" x2="1163.29" y2="234.377" gradientUnits="userSpaceOnUse">
<stop stop-color="#FFF3AD"/>
<stop offset="1" stop-color="#F9EEA9"/>
</linearGradient>
</defs>
</svg>
